!!!!SEGMENT: pl-kk--kk-i-3--029_anonim--venit-caeli-nuntius.krn
!!!cenid: 15xx:637
!!!COM: Anonim
!!!COM-rismID: pe30004985
!!!CDT:
!!!CNT:
!!!OTL: Venit caeli nuntius
!!!PDT:
!!!AGN:
!!!SMS-siglum: PL-Kk
!!!SMS-shelfmark: Kk.I.3
!!!SMS-shelfwork: 029 W
!!!SMS-variant:
!!!SMS-altvar:
!!!NIFC-rismSourceID: 1001145493
!!!NIFC-islandoraID: pl-kk:1170
!!!URL-pdf-islandora: https://repozytorium.nifc.pl/islandora/object/pl-kk%3A1170/datastream/PDF/view
!!!URL-scan: https://polish.musicsources.pl/pl/lokalizacje/galeria/rekopisy/5919 @EN{Scan on Polish Music Sources Website} @PL{Skany w portalu Dziedzictwo Muzyki Polskiej w otwartym dostępie}
!!!ONB-nifc: UWAGA: Discantus (s. 97v-99r, skan 0100-0101), Tenor (s. 72v-73v, skan 0245-0246), Bassus (s. 95r-96v, skan 0398-0400)
!!!AIN: 1 alto 1 bass 1 tenor
!!!key: d:dor
**kern	**text	**text	**kern	**text	**text	**kern	**text	**text
*part3	*part3	*part3	*part2	*part2	*part2	*part1	*part1	*part1
*staff3	*staff3	*staff3	*staff2	*staff2	*staff2	*staff1	*staff1	*staff1
*I"Bassus	*	*	*I"Tenor	*	*	*I"Discantus	*	*
*I'B	*	*	*I'T	*	*	*I'A	*	*
*Ibass	*	*	*Itenor	*	*	*Ialto	*	*
*ICvox	*	*	*ICvox	*	*	*ICvox	*	*
*clefF4	*	*	*clefC4	*	*	*clefC4	*	*
*k[]	*	*	*k[]	*	*	*k[]	*	*
*d:dor	*	*	*d:dor	*	*	*d:dor	*	*
=1-	=1-	=1-	=1-	=1-	=1-	=1-	=1-	=1-
1C	Ve-	De-	1C	Ve-	De	1c	Ve-	De
2GG/	-nit	-spon-	1D	-nit	spon-	2B/	-nit	spon-
1D\	ce-	-sa-	.	.	.	2A/	.	.
=2-	=2-	=2-	=2-	=2-	=2-	=2-	=2-	=2-
.	.	.	1F	ce-	-sa	2F/	ce-	-sa-
2D/	-li	-tam	.	.	.	1f	.	.
1C	.	.	1G	-li	tam	.	.	.
*	*	*	*	*	*	*2\right	*	*
.	.	.	.	.	.	2e\	-li	-tam
=3-	=3-	=3-	=3-	=3-	=3-	=3-	=3-	=3-
2FF/	nun-	Jo-	1F	nun-	Jo-	2c/	n(un)-	Jo-
*	*	*	*	*	*	*lig	*	*
2BB/	.	.	.	.	.	1d	.	.
*lig	*	*	*lig	*	*	*	*	*
1C	.	.	1E	.	.	.	.	.
.	.	.	.	.	.	1c\	.	.
*	*	*	*	*	*	*Xlig	*	*
=4-	=4-	=4-	=4-	=4-	=4-	=4-	=4-	=4-
1GG	.	.	1D	.	.	.	.	.
.	.	.	.	.	.	2B/	.	.
*Xlig	*	*	*Xlig	*	*	*	*	*
*custos:D	*	*	*	*	*	*custos:B	*	*
1G	-ti-	.	1C	-ti-	.	1c	-ti-	-[[se]]-
!LO:PB:g=original	!	!	!	!	!	!LO:LB:g=original	!	!
=5-	=5-	=5-	=5-	=5-	=5-	=5-	=5-	=5-
*	*	*	*custos:F	*	*	*	*	*
2D/	-us	-seph	1D	-us	-seph	2B-X/	-us	-seph
1F	ve-	vi-	.	.	.	1A	ve-	vi-
!	!	!	!LO:LB:g=original	!	!	!	!	!
*	*	*	*clefC5	*	*	*	*	*
.	.	.	1F	ve-	vi-	.	.	.
1A\	-nit	-ro	.	.	.	2F/	.	.
=6-	=6-	=6-	=6-	=6-	=6-	=6-	=6-	=6-
.	.	.	1G	-nit	-ro	1E	-nit	-ro
1G	.	.	.	.	.	.	.	.
.	.	.	1A	miſ-	Jus-	1D	miſ-	iuſ-
2F/	miſ-	Ju-	.	.	.	.	.	.
=7-	=7-	=7-	=7-	=7-	=7-	=7-	=7-	=7-
1G	-sus	-ſto	1B	-sus	-to	1d	-ſus	-to
2D/	ce-	fi-	1A	ce-	fi-	2d\	ce-	fi-
2F/	.	.	.	.	.	1c\	.	.
=8-	=8-	=8-	=8-	=8-	=8-	=8-	=8-	=8-
1E	.	.	1G	.	.	.	.	.
.	.	.	.	.	.	2c/	.	.
1D	.	.	1F	.	.	2d\	.	.
.	.	.	.	.	.	1f\	.	.
=9-	=9-	=9-	=9-	=9-	=9-	=9-	=9-	=9-
1C	-li-	-de-	1G	-li-	-de-	.	.	.
.	.	.	.	.	.	2e\	-li-	-de-
2FF/	-tus	-li	1A	-tus	-li	2f\	-tus	-li
*	*	*	*	*	*	*custos:c	*	*
1F\	ad	et	.	.	.	1c\	ad	et
=10-	=10-	=10-	=10-	=10-	=10-	=10-	=10-	=10-
.	.	.	1C	ad	et	.	.	.
!	!	!	!	!	!	!LO:LB:g=original	!	!
2E/	.	.	.	.	.	2c\	.	.
*custos:D	*	*	*	*	*	*	*	*
1F	vir-	de-	1D	vir-	de-	2A/	vir-	De-
.	.	.	.	.	.	2F/	-gi-	-o
!LO:LB:g=original	!	!	!	!	!	!	!	!
=11-	=11-	=11-	=11-	=11-	=11-	=11-	=11-	=11-
*	*	*	*custos:G	*	*	*	*	*
1D	-gi-	-o	1F	-gi-	-o	2A/	.	.
.	.	.	.	.	.	2Bny/	.	.
!	!	!	!LO:LB:g=original	!	!	!	!	!
*	*	*	*clefC4	*	*	*	*	*
1C	-nem	a-	1G	-nem	a-	1c	-nem	a-
=12-	=12-	=12-	=12-	=12-	=12-	=12-	=12-	=12-
*lig	*	*	*	*	*	*	*	*
1D	Ma-	-ma-	1F	Ma-	-ma-	2A/	ma-	-ma-
.	.	.	.	.	.	1d	.	.
*	*	*	*lig	*	*	*	*	*
1AA	.	.	1E	.	.	.	.	.
.	.	.	.	.	.	2c\	.	.
*Xlig	*	*	*	*	*	*	*	*
=13-	=13-	=13-	=13-	=13-	=13-	=13-	=13-	=13-
2BB/	.	.	1D	.	.	2d\	.	.
2GG/	.	.	.	.	.	2B/	.	.
*	*	*	*Xlig	*	*	*	*	*
1AA	ri-	-bi-	1C	-ri-	-bi-	1A	-ri-	-bi-
=14-	=14-	=14-	=14-	=14-	=14-	=14-	=14-	=14-
*	*	*	*	*	*	*custos:A	*	*
0A;<l	-a	-li	0D;l	-am	-li	0F;l	-am	-lis
!	!	!	!	!	!	!LO:PB:g=original	!	!
=15||	=15||	=15||	=15||	=15||	=15||	=15||	=15||	=15||
1AA	Con-	Ne	1A	Con-	Ne	1A	Con-	Ne
1AA	-so-	paue-	1c	-so-	pa-	2F/	-so-	pa-
.	.	.	.	.	.	2E/	.	.
=16-	=16-	=16-	=16-	=16-	=16-	=16-	=16-	=16-
*custos:GG	*	*	*	*	*	*	*	*
2BB/	-la-	-at	1d	-la-	-ue-	2D/	-la-	-ue-
!LO:LB:g=original	!	!	!	!	!	!	!	!
2GG/	.	.	.	.	.	2G/	.	.
1BB	-tur	a-	1d	-tur	-as	2F/	-tur	-as
.	.	.	.	.	.	2B/	.	.
=17-	=17-	=17-	=17-	=17-	=17-	=17-	=17-	=17-
*	*	*	*lig	*	*	*	*	*
2FF/	vir-	-it	1c	vir-	a-	2A/	vir-	a-
2AA/	.	vir-	.	.	.	2F/	.	it
*	*	*	*custos:A	*	*	*	*	*
1GG	.	.	1B	.	-it	1G	.	.
*	*	*	*Xlig	*	*	*	*	*
!	!	!	!LO:LB:g=original	!	!	!	!	!
=18-	=18-	=18-	=18-	=18-	=18-	=18-	=18-	=18-
2FF/	-gi-	-go	1c	-gi-	vir-	1A	-gi-	vir-
*2\right	*	*	*	*	*	*	*	*
2F\	.	.	.	.	.	.	.	.
2D/	.	.	1d	-nem	-go	2F/	-n(em)	-go
2BB-X/	-nem	gra-	.	.	.	1f\	pa-	gra-
=19-	=19-	=19-	=19-	=19-	=19-	=19-	=19-	=19-
1C	pa-	-tus	1c	pa-	gra-	.	.	.
*	*	*	*	*	*	*custos:f	*	*
.	.	.	.	.	.	2e\	.	.
!	!	!	!	!	!	!LO:LB:g=original	!	!
*	*	*	*	*	*	*clefC3	*	*
1D	-ui-	e(st)	1A	-ui-	-tus	1f	-ui-	-tus
=20-	=20-	=20-	=20-	=20-	=20-	=20-	=20-	=20-
2C/	-dam	ad	1c	-dam	eſt	2e\	-dam	est
*clefF3	*	*	*	*	*	*	*	*
1c	.	.	.	.	.	2c/	.	.
.	.	.	1G	ob-	ad	2d/	ob-	ad
*custos:A	*	*	*	*	*	*	*	*
2B\	ob-	te	.	.	.	2e\	.	.
!LO:LB:g=original	!	!	!	!	!	!	!	!
=21-	=21-	=21-	=21-	=21-	=21-	=21-	=21-	=21-
*	*	*	*lig	*	*	*	*	*
1A	-nun-	ser-	1F	-n(un)-	te	2c/	-nun-	te
.	.	.	.	.	.	1f	.	.
1c	.	.	1G	.	.	.	.	.
.	.	.	.	.	.	2e\	.	.
*	*	*	*Xlig	*	*	*	*	*
=22-	=22-	=22-	=22-	=22-	=22-	=22-	=22-	=22-
2A\	-ti-	-mo	1F	-ci-	ser-	2c/	-ci-	ser-
2F/	.	.	.	.	.	1d	.	.
*lig	*	*	*lig	*	*	*	*	*
1G	.	.	1E	.	.	.	.	.
.	.	.	.	.	.	1c\	.	.
=23-	=23-	=23-	=23-	=23-	=23-	=23-	=23-	=23-
1F	.	.	1D	.	.	.	.	.
.	.	.	.	.	.	2B/	.	.
*Xlig	*	*	*Xlig	*	*	*	*	*
1E	-um	con-	1C	-um	-mo	1c	-um	-mo
=24-	=24-	=24-	=24-	=24-	=24-	=24-	=24-	=24-
*	*	*	*	*	*	*custos:A	*	*
1C	n(un)-	-ci-	1G	n(un)-	con-	1c	nun-	con-
*custos:BB	*	*	*custos:F	*	*	*	*	*
!	!	!	!	!	!	!LO:LB:g=original	!	!
1D	-q(uam)	-pi-	1F	-q(uam)	-ci-	2A/	-q(uam)	-ci-
.	.	.	.	.	.	1F/	an-	-pi-
!	!	!	!LO:PB:g=original	!	!	!	!	!
=25-	=25-	=25-	=25-	=25-	=25-	=25-	=25-	=25-
*clefF4	*	*	*	*	*	*	*	*
2BBny/	an-	-es	1F	an-	-pi-	.	.	.
2AA/	.	.	.	.	.	2A/	.	.
*	*	*	*lig	*	*	*	*	*
1GG	.	.	1G	.	.	1B	.	.
=26-	=26-	=26-	=26-	=26-	=26-	=26-	=26-	=26-
2FF/	.	.	1A	.	.	2A/	.	.
1F	.	.	.	.	.	2c/	.	.
*	*	*	*Xlig	*	*	*	*	*
.	.	.	1G	-te	-es	2d/	-te	-es
*custos:F	*	*	*	*	*	*	*	*
2E/	-te	.	.	.	.	1e\	an-	fi-
!LO:LB:g=original	!	!	!	!	!	!	!	!
=27-	=27-	=27-	=27-	=27-	=27-	=27-	=27-	=27-
*	*	*	*lig	*	*	*	*	*
2F\	au-	fi-	1F	au-	fi-	.	.	.
2FF/	.	.	.	.	.	1d	-te	.
2GG/	.	.	1E	.	.	.	.	.
2AA/	.	.	.	.	.	2c/	.	.
*	*	*	*Xlig	*	*	*	*	*
=28-	=28-	=28-	=28-	=28-	=28-	=28-	=28-	=28-
*lig	*	*	*	*	*	*	*	*
1BB	-di-	-li-	1D	.	.	1d	.	.
1AA	.	.	1C	-di-	-li-	1e	di-	li-
*Xlig	*	*	*	*	*	*	*	*
=29-	=29-	=29-	=29-	=29-	=29-	=29-	=29-	=29-
*	*	*	*	*	*	*custos:f	*	*
0D;<l	-tum.	-um	0D;l	-tum	-um	0A;l	-tum	-um
!	!	!	!	!	!	!LO:LB:g=original	!	!
=30||	=30||	=30||	=30||	=30||	=30||	=30||	=30||	=30||
2D/	fi-	Pec-	1d	Fi-	pec-	1f	Fi-	Pec-
2E/	-li-	-ca-	.	.	.	.	.	.
2F\	.	.	1d	-li-	-ca-	1f	-li-	-ca-
2G\	.	.	.	.	.	.	.	.
=31-	=31-	=31-	=31-	=31-	=31-	=31-	=31-	=31-
*	*	*	*lig	*	*	*	*	*
*custos:F	*	*	*	*	*	*	*	*
2A\	-vm	-to-	1c	-um	-to-	2e\	-um	-to-
!LO:PB:g=original	!	!	!	!	!	!	!	!
2F/	.	.	.	.	.	2f\	.	.
*	*	*	*custos:c	*	*	*	*	*
1G	al-	.	1B	.	.	1d	.	.
*	*	*	*Xlig	*	*	*	*	*
!	!	!	!LO:LB:g=original	!	!	!	!	!
=32-	=32-	=32-	=32-	=32-	=32-	=32-	=32-	=32-
2E/	-tiſ-	-rum	1c	al-	-rum	2g\	al-	-rum
2F/	.	.	.	.	.	1f	-tiſ-	sa-
*	*	*	*lig	*	*	*	*	*
2D/	.	.	1d	-tiſ-	sa-	.	.	.
1G\	-si-	sa-	.	.	.	1d\	.	.
=33-	=33-	=33-	=33-	=33-	=33-	=33-	=33-	=33-
.	.	.	1B	.	.	.	.	.
1E	-mi	-lu-	.	.	.	1e	.	.
*	*	*	*Xlig	*	*	*	*	*
.	.	.	1c	-si-	-lu-	.	.	.
1F\	.	-tem	.	.	.	1c\	-si-	-lu-
=34-	=34-	=34-	=34-	=34-	=34-	=34-	=34-	=34-
.	.	.	1A	-mi	-tem	.	.	.
1D	et	mi-	.	.	.	2d/	-mi	-tem
.	.	.	1F	et	mi-	2A/	et	mi-
1BB/	.	.	.	.	.	1d\	re-	-se-
=35-	=35-	=35-	=35-	=35-	=35-	=35-	=35-	=35-
.	.	.	1D	re-	-se-	.	.	.
2GG/	re-	-se-	.	.	.	2B/	.	.
*	*	*	*	*	*	*custos:c	*	*
1AA	-gis	-ro-	1C	-gis	-ro-	2A/	-gis	-ro-
!	!	!	!	!	!	!LO:LB:g=original	!	!
.	.	.	.	.	.	1c\	q(ui)s	-rum
=36-	=36-	=36-	=36-	=36-	=36-	=36-	=36-	=36-
1GG	q(ui)s	-rum	1D	q(ui)s	-rum	.	.	.
.	.	.	.	.	.	2B/	.	.
1FF	ma-	so-	1F	ma-	so-	1c	ma-	so-
=37-	=37-	=37-	=37-	=37-	=37-	=37-	=37-	=37-
*custos:FF	*	*	*	*	*	*	*	*
1C	-xi-	-la-	1G	-xi-	-la-	1c	-xi-	-la-
!LO:LB:g=original	!	!	!	!	!	!	!	!
2FF/	-mi	-men	1F	mi	-men	1A	-mi	-men
1F\	de-	la-	.	.	.	.	.	.
=38-	=38-	=38-	=38-	=38-	=38-	=38-	=38-	=38-
*	*	*	*custos:G	*	*	*	*	*
.	.	.	1F	de-	la-	2F/	de-	la-
2A\	.	.	.	.	.	1f	-um	-pſo-
!	!	!	!LO:LB:g=original	!	!	!	!	!
1G	-vm	-pso-	1G	-um	-pso-	.	.	.
.	.	.	.	.	.	2e\	.	.
=39-	=39-	=39-	=39-	=39-	=39-	=39-	=39-	=39-
*	*	*	*	*	*	*lig	*	*
2F\	et	-r(um)	1A	.	-rum	1f	et	-rum
1D	ho-	re-	.	.	.	.	.	.
.	.	.	1G	et	re-	1e	.	.
2C/	.	-me-	.	.	.	.	.	.
*	*	*	*	*	*	*Xlig	*	*
=40-	=40-	=40-	=40-	=40-	=40-	=40-	=40-	=40-
*	*	*	*lig	*	*	*	*	*
1D	.	.	1F	ho-	-me-	2A/	ho-	re-
.	.	.	.	.	.	1d	.	-me-
*lig	*	*	*	*	*	*	*	*
1AA	.	.	1E	.	.	.	.	.
.	.	.	.	.	.	2c/	.	.
*	*	*	*Xlig	*	*	*	*	*
=41-	=41-	=41-	=41-	=41-	=41-	=41-	=41-	=41-
1BB	.	.	1D	.	.	2d/	.	.
*	*	*	*	*	*	*custos:A	*	*
.	.	.	.	.	.	2G/	.	.
!	!	!	!	!	!	!LO:PB:g=original	!	!
*Xlig	*	*	*	*	*	*	*	*
1AA	.	.	1C	-mi-	-di-	1A	.	.
=42-	=42-	=42-	=42-	=42-	=42-	=42-	=42-	=42-
1GG	-mi-	-di-	0D;l	-ne(m)	-um	1B	-mi-	-di-
*custos:BB	*	*	*	*	*	*	*	*
1D;<l	-nem	-um	.	.	.	1A;l	-nem	-um
!LO:LB:g=original	!	!	!	!	!	!	!	!
=43||	=43||	=43||	=43||	=43||	=43||	=43||	=43||	=43||
1BB-X	Et	Ma-	1D	Et	Ma-	1d	Et	Ma-
*	*	*	*lig	*	*	*	*	*
2AA/	lux	-ter	1A	lux	-ter	2e/	lux	-ter
1AA/	.	.	.	.	.	2c/	.	.
=44-	=44-	=44-	=44-	=44-	=44-	=44-	=44-	=44-
.	.	.	1B	.	.	1d	.	.
2GG/	.	.	.	.	.	.	.	.
*	*	*	*Xlig	*	*	*	*	*
*	*	*	*lig	*	*	*	*	*
*	*	*	*	*	*	*custos:f	*	*
1AA	be-	e-	1A	be-	e-	2c/	be-	e-
!	!	!	!	!	!	!LO:LB:g=original	!	!
.	.	.	.	.	.	1f\	.	.
=45-	=45-	=45-	=45-	=45-	=45-	=45-	=45-	=45-
*	*	*	*custos:A	*	*	*	*	*
1BBny	.	.	1G	.	.	.	.	.
.	.	.	.	.	.	4e\	.	.
.	.	.	.	.	.	4d\	.	.
*	*	*	*Xlig	*	*	*	*	*
!	!	!	!LO:LB:g=original	!	!	!	!	!
*	*	*	*lig	*	*	*	*	*
2AA/	-a-	-ris	1A	-a-	-ris	2c/	-a-	-ris
1A\	.	.	.	.	.	2f\	.	.
=46-	=46-	=46-	=46-	=46-	=46-	=46-	=46-	=46-
.	.	.	1B	.	.	2d/	.	.
2G\	.	.	.	.	.	2e\	.	.
*	*	*	*Xlig	*	*	*	*	*
*	*	*	*lig	*	*	*	*	*
2F\	-tiſ-	in	1c	-tiſ-	in	2f\	-tiſ-	in
2E/	.	.	.	.	.	1g\	.	.
=47-	=47-	=47-	=47-	=47-	=47-	=47-	=47-	=47-
*lig	*	*	*	*	*	*	*	*
1D	-si-	fa-	1A	.	.	.	.	.
.	.	.	.	.	.	2f\	.	.
*	*	*	*Xlig	*	*	*	*	*
*custos:C	*	*	*	*	*	*	*	*
1GG	.	.	1B	-si-	ta-	1g	-si-	fa-
*Xlig	*	*	*	*	*	*	*	*
!LO:LB:g=original	!	!	!	!	!	!	!	!
=48-	=48-	=48-	=48-	=48-	=48-	=48-	=48-	=48-
1C	-ma	-cta	1G	-ma	-cta	2g\	-ma	-cta
.	.	.	.	.	.	1e	tu-	ce-
2AA/	tu-	ce-	1A	tu-	ce-	.	.	.
*	*	*	*	*	*	*custos:e	*	*
2FF/	.	.	.	.	.	1f\	-i	.
=49-	=49-	=49-	=49-	=49-	=49-	=49-	=49-	=49-
1GG	-i	-li	1B	-j	-li	.	.	.
!	!	!	!	!	!	!LO:LB:g=original	!	!
.	.	.	.	.	.	2e\	i	-li
*	*	*	*lig	*	*	*	*	*
2FF/	cor-	por-	1A	cor-	por-	1f	cor-	por-
1F\	.	.	.	.	.	.	.	.
=50-	=50-	=50-	=50-	=50-	=50-	=50-	=50-	=50-
.	.	.	1G	.	.	2d/	.	.
2E/	.	.	.	.	.	2e\	.	.
*	*	*	*Xlig	*	*	*	*	*
1F	-dit	-ta	1A	-dis	-ta	2d/	-dis	-ta
.	.	.	.	.	.	1c\	.	.
=51-	=51-	=51-	=51-	=51-	=51-	=51-	=51-	=51-
1D	in-	i(am)	1F	in-	iam	.	.	.
.	.	.	.	.	.	2B/	in-	iam
1C	-ti-	fa-	1G	-ti-	fa-	1c	-ti-	fa-
=52-	=52-	=52-	=52-	=52-	=52-	=52-	=52-	=52-
*	*	*	*custos:F	*	*	*	*	*
1c	-ma-	-cta	1F	-ma	-cta	1A	-ma	-cta
!	!	!	!LO:LB:g=original	!	!	!	!	!
2F\	-o-	fun-	1F	a-	fun-	2d/	.	.
2A\	-bum	.	.	.	.	2c/	o-	fun-
=53-	=53-	=53-	=53-	=53-	=53-	=53-	=53-	=53-
1G	.	-dens	1G	-bum	-d(en)s	1B	-bum	-dens
*custos:F	*	*	*	*	*	*	*	*
2D/	bra-	re-	1A	bra-	re-	1A	bra-	re-
!LO:LB:g=original	!	!	!	!	!	!	!	!
2F\	.	.	.	.	.	.	.	.
=54-	=54-	=54-	=54-	=54-	=54-	=54-	=54-	=54-
*	*	*	*	*	*	*custos:e	*	*
1E	-bit	-gem	1G	-bit	-gem	1e	-bit	-gem
!	!	!	!	!	!	!LO:LB:g=original	!	!
2C/	vis-	glo-	1c	vi-	glo-	2e\	vi-	glo-
1AA/	-ce-	-ri-	.	.	.	2c/	.	.
=55-	=55-	=55-	=55-	=55-	=55-	=55-	=55-	=55-
*	*	*	*lig	*	*	*	*	*
.	.	.	1B	-sce-	-ri-	1d	-sce-	-ri-
2GG/	.	.	.	.	.	.	.	.
1AA	.	.	1A	.	.	2c/	.	.
.	.	.	.	.	.	1e\	.	.
*	*	*	*Xlig	*	*	*	*	*
=56-	=56-	=56-	=56-	=56-	=56-	=56-	=56-	=56-
1E	.	.	1G	.	.	.	.	.
.	.	.	.	.	.	2g\	.	.
1F	.	.	[1A;l	-ra	-e	1f	.	.
=57-	=57-	=57-	=57-	=57-	=57-	=57-	=57-	=57-
2C/	.	.	0A]	.	.	2e\	.	.
2D/	-ra	-e	.	.	.	2f\	.	.
*custos:G	*	*	*	*	*	*custos:d	*	*
1AA;l	.	.	.	.	.	1e;l	ra	-e
!LO:PB:g=original	!	!	!	!	!	!LO:LB:g=original	!	!
=58||	=58||	=58||	=58||	=58||	=58||	=58||	=58||	=58||
*	*	*	*	*	*	*clefC4	*	*
1G	Quem	Vt	1d	Quem	Vt	1d	Quem	Vt
*	*	*	*custos:G	*	*	*	*	*
2F/	no-	pur	1d	no-	pur-	2f\	.	.
1G\	.	.	.	.	.	1d\	no-	pur-
!	!	!	!LO:PB:g=original	!	!	!	!	!
=59-	=59-	=59-	=59-	=59-	=59-	=59-	=59-	=59-
.	.	.	1G	-bis	-ga-	.	.	.
2E/	-bis	ga-	.	.	.	2e\	-bis	-ga-
1D	con-	-tis	1A	con-	-tis	1f	con-	-tis
=60-	=60-	=60-	=60-	=60-	=60-	=60-	=60-	=60-
2C/	-ci-	sor-	1c	-ci-	sor-	2e\	-ci-	sor-
2AA/	.	.	.	.	.	2c\	.	.
1GG	-li-	-di-	1B	-li-	-di-	2d\	-li-	-di-
.	.	.	.	.	.	2e\	.	.
=61-	=61-	=61-	=61-	=61-	=61-	=61-	=61-	=61-
1FF	-a	-bus	1A	-a	-bus	1c	-a	-bus
1F	gra-	fru-	1A	gra-	fru-	1c	gra-	fru-
=62-	=62-	=62-	=62-	=62-	=62-	=62-	=62-	=62-
2D/	-ci-	-a-	1B	-ci-	-a-	1d	-ci-	-a-
2BB-X/	.	.	.	.	.	.	.	.
*	*	*	*lig	*	*	*	*	*
2C/	-am	-mur	1A	-am	-mur	2c/	-am	-mur
*custos:GG	*	*	*	*	*	*custos:B	*	*
2D/	.	.	.	.	.	2A/	.	.
!LO:LB:g=original	!	!	!	!	!	!LO:PB:g=original	!	!
=63-	=63-	=63-	=63-	=63-	=63-	=63-	=63-	=63-
2GG/	.	.	1G	.	.	2B/	q(uae)	.
2C/	.	.	.	.	.	1c	im-	ce-
*	*	*	*Xlig	*	*	*	*	*
2AA/	q(uae)	ce-	1A	q(uae)	ce-	.	.	.
1FF/	.	.	.	.	.	1F/	-pe-	-le-
=64-	=64-	=64-	=64-	=64-	=64-	=64-	=64-	=64-
.	.	.	1F	im-	-le-	.	.	.
1F	im-	-le-	.	.	.	1A	.	-sti-
*	*	*	*custos:F	*	*	*	*	*
.	.	.	1G	-pe-	-ſti-	.	.	.
2E/	-pe-	-sti-	.	.	.	2G/	.	.
!	!	!	!LO:LB:g=original	!	!	!	!	!
=65-	=65-	=65-	=65-	=65-	=65-	=65-	=65-	=65-
1F	-tra	-bus	1F	-tra	-bus	1A	-tra	-bus
2BB-X/	mi-	in	1F	mi-	in	2B-X/	mi-	in
2D/	.	.	.	.	.	2A/	.	.
=66-	=66-	=66-	=66-	=66-	=66-	=66-	=66-	=66-
1C	-se-	ce-	1G	-ſe-	ce-	1c	-se-	ce-
1FF	-ris	-le-	1A	-ris	-le-	2A/	-ris	-le-
.	.	.	.	.	.	1F/	.	.
=67-	=67-	=67-	=67-	=67-	=67-	=67-	=67-	=67-
1BBny	mor-	-ſti	1D	mor-	-sti	.	.	.
.	.	.	.	.	.	2G/	mor-	-ſti
1AA	-ta-	cu-	1E	-ta-	cu-	1A	-ta-	cu-
=68-	=68-	=68-	=68-	=68-	=68-	=68-	=68-	=68-
*	*	*	*lig	*	*	*	*	*
*	*	*	*	*	*	*custos:f	*	*
1D	.	.	1F	.	.	2F/	.	.
!	!	!	!	!	!	!LO:LB:g=original	!	!
*	*	*	*	*	*	*clefC3	*	*
.	.	.	.	.	.	1f	.	.
*custos:D	*	*	*	*	*	*	*	*
1C	.	.	1G	.	.	.	.	.
.	.	.	.	.	.	2e\	.	.
*	*	*	*Xlig	*	*	*	*	*
!LO:LB:g=original	!	!	!	!	!	!	!	!
=69-	=69-	=69-	=69-	=69-	=69-	=69-	=69-	=69-
*	*	*	*lig	*	*	*	*	*
1D	-li-	-ri-	1F	-li-	-ri-	2f\	.	.
.	.	.	.	.	.	2d/	.	.
2AA/	.	.	1E	.	.	1c	.	.
1C/	.	.	.	.	.	.	.	.
*	*	*	*Xlig	*	*	*	*	*
=70-	=70-	=70-	=70-	=70-	=70-	=70-	=70-	=70-
*	*	*	*lig	*	*	*	*	*
.	.	.	1D	.	.	1d	li-	ri-
2BB/	.	.	.	.	.	.	.	.
2C/	.	.	1C	.	.	1e	.	.
2AA/	.	.	.	.	.	.	.	.
*	*	*	*Xlig	*	*	*	*	*
=71-	=71-	=71-	=71-	=71-	=71-	=71-	=71-	=71-
2BB/	.	.	[0D;l	-bus	-a	1d	.	.
2GG/	.	.	.	.	.	.	.	.
2BB/	.	.	.	.	.	2d/	.	.
2C/	-bus	-a	.	.	.	4c/	.	.
.	.	.	.	.	.	4Bny/	.	.
=72-	=72-	=72-	=72-	=72-	=72-	=72-	=72-	=72-
0D;<l	-.	.	0D]	.	.	0A;l	-bus	-a
==	==	==	==	==	==	==	==	==
*-	*-	*-	*-	*-	*-	*-	*-	*-
!!!system-decoration: [(s1,s2,s3)]
!!!RDF**kern: < = below
!!!RDF**kern: l = terminal long
!!!ENC: Berenika Jozajtis
!!!END: 2022-01-13
!!!ENC: Marta Lawrence
!!!END: 2022-01-24
!!!YEC: Copyright 2022 Narodowy Instytut Fryderyka Chopina (https://polishscores.org)
!!!YEM: Licence CC BY 4.0 (https://creativecommons.org/licenses/by/4.0)
